X:19076
T:Xiraldilla (CT 398)
R:Xiraldilla
C:Tradicional
S:Música Tradicional Asturiana, (C) Tello & Tito. Asturies, 2001.
S:http://pagina.de/MusTradAst <telloytito@asturies.org>
N:Xiraldilla, transcrita en Muriellos, ayuntamiento de Riosa.
O:Muriellos (Riosa)
A:Asturies
Z:Cancioneru de Torner 398
M:3/8
L:1/8
Q:3/8=88
W:Isabelina mellamo
W:y soy hija de un labrador;
W:aunque venga y vaya al campo,
W:a mí no me quema el sol.
W:
W:prenda querida
W:del corazón,
W:mira qué juntos
W:estamos hoy.
W:
W:pero mañana,
W:¡triste de mi!
W:larga distancia
W:estaré de tí.
K:G
|d2 B|A3|ced|e2 e|e2 d|f2 e|edc|B2 z|
d2 B|A3|ced|e2 e|e2 d|f2 e|edc|B2 z|
|dcB|A2 c|eed|e3|eed|f2 e|edc|B2 z|
dcB|A2 c|eed|e3|eed|f2 e|edc|B2 ||


